X: 758
T: The Absent Minded Man
M:6/8
L:1/8
B:O'Neill's 758
R:Jig
Z:"Transcribed by Bob Safranek, rjs@gsp.org"
K:A
   d | cAc efg | aed c2 A | dfd cec | dBB B2 d |
       cAc efg | aed c2 A | Bba gfg | aAA A2  :|
|: c | ecc Acc | ecc Acc  | dBB GBB | dBB GBB  |
       ecc fdd | gee aff  | ecc gBG | ABA A2  :|
